packages/icons/src/svg/28/services_outline_28.svg

<?xml version="1.0" encoding="UTF-8"?>
<svg width="28px" height="28px" viewBox="0 0 28 28" version="1.1" xmlns="http://www.w3.org/2000/svg" xmlns:xlink="http://www.w3.org/1999/xlink">
    <!-- Generator: Sketch 63.1 (92452) - https://sketch.com -->
    <title>services_outline_28</title>
    <desc>Created with Sketch.</desc>
    <g id="Page-1" stroke="none" stroke-width="1" fill="none" fill-rule="evenodd">
        <g id="services_outline_28">
            <polygon points="0 0 28 0 28 28 0 28"></polygon>
            <path d="M9.11562915,15 C10.1810126,15 10.739169,15.107785 11.3205503,15.4187111 C11.8614854,15.7080064 12.2919936,16.1385146 12.5812889,16.6794497 C12.892215,17.260831 13,17.8189874 13,18.8843708 L13,21.1156292 C13,22.1810126 12.892215,22.739169 12.5812889,23.3205503 C12.2919936,23.8614854 11.8614854,24.2919936 11.3205503,24.5812889 C10.739169,24.892215 10.1810126,25 9.11562915,25 L6.88437085,25 C5.81898744,25 5.26083101,24.892215 4.67944972,24.5812889 C4.13851458,24.2919936 3.70800637,23.8614854 3.41871109,23.3205503 C3.10778498,22.739169 3,22.1810126 3,21.1156292 L3,18.8843708 C3,17.8189874 3.10778498,17.260831 3.41871109,16.6794497 C3.70800637,16.1385146 4.13851458,15.7080064 4.67944972,15.4187111 C5.26083101,15.107785 5.81898744,15 6.88437085,15 L9.11562915,15 Z M21.1156292,15 C22.1810126,15 22.739169,15.107785 23.3205503,15.4187111 C23.8614854,15.7080064 24.2919936,16.1385146 24.5812889,16.6794497 C24.892215,17.260831 25,17.8189874 25,18.8843708 L25,21.1156292 C25,22.1810126 24.892215,22.739169 24.5812889,23.3205503 C24.2919936,23.8614854 23.8614854,24.2919936 23.3205503,24.5812889 C22.739169,24.892215 22.1810126,25 21.1156292,25 L18.8843708,25 C17.8189874,25 17.260831,24.892215 16.6794497,24.5812889 C16.1385146,24.2919936 15.7080064,23.8614854 15.4187111,23.3205503 C15.107785,22.739169 15,22.1810126 15,21.1156292 L15,18.8843708 C15,17.8189874 15.107785,17.260831 15.4187111,16.6794497 C15.7080064,16.1385146 16.1385146,15.7080064 16.6794497,15.4187111 C17.260831,15.107785 17.8189874,15 18.8843708,15 L21.1156292,15 Z M9.11562915,17 L6.88437085,17 C6.12091685,17 5.87467553,17.0475514 5.62264744,17.1823375 C5.43024925,17.2852332 5.28523317,17.4302492 5.18233749,17.6226474 C5.04755139,17.8746755 5,18.1209169 5,18.8843708 L5,21.1156292 C5,21.8790831 5.04755139,22.1253245 5.18233749,22.3773526 C5.28523317,22.5697508 5.43024925,22.7147668 5.62264744,22.8176625 C5.87467553,22.9524486 6.12091685,23 6.88437085,23 L9.11562915,23 C9.87908315,23 10.1253245,22.9524486 10.3773526,22.8176625 C10.5697508,22.7147668 10.7147668,22.5697508 10.8176625,22.3773526 C10.9524486,22.1253245 11,21.8790831 11,21.1156292 L11,18.8843708 C11,18.1209169 10.9524486,17.8746755 10.8176625,17.6226474 C10.7147668,17.4302492 10.5697508,17.2852332 10.3773526,17.1823375 C10.1253245,17.0475514 9.87908315,17 9.11562915,17 Z M21.1156292,17 L18.8843708,17 C18.1209169,17 17.8746755,17.0475514 17.6226474,17.1823375 C17.4302492,17.2852332 17.2852332,17.4302492 17.1823375,17.6226474 C17.0475514,17.8746755 17,18.1209169 17,18.8843708 L17,21.1156292 C17,21.8790831 17.0475514,22.1253245 17.1823375,22.3773526 C17.2852332,22.5697508 17.4302492,22.7147668 17.6226474,22.8176625 C17.8746755,22.9524486 18.1209169,23 18.8843708,23 L21.1156292,23 C21.8790831,23 22.1253245,22.9524486 22.3773526,22.8176625 C22.5697508,22.7147668 22.7147668,22.5697508 22.8176625,22.3773526 C22.9524486,22.1253245 23,21.8790831 23,21.1156292 L23,18.8843708 C23,18.1209169 22.9524486,17.8746755 22.8176625,17.6226474 C22.7147668,17.4302492 22.5697508,17.2852332 22.3773526,17.1823375 C22.1253245,17.0475514 21.8790831,17 21.1156292,17 Z M20.8914768,2.41255593 C21.5224335,2.60379662 21.9933251,2.92225732 22.746665,3.67559716 L24.3244028,5.25333503 C25.0777427,6.00667487 25.3962034,6.47756655 25.5874441,7.10852316 C25.7653803,7.69558472 25.7653803,8.30441528 25.5874441,8.89147684 C25.3962034,9.52243345 25.0777427,9.99332513 24.3244028,10.746665 L22.746665,12.3244028 C21.9933251,13.0777427 21.5224335,13.3962034 20.8914768,13.5874441 C20.3044153,13.7653803 19.6955847,13.7653803 19.1085232,13.5874441 C18.4775665,13.3962034 18.0066749,13.0777427 17.253335,12.3244028 L15.6755972,10.746665 C14.9222573,9.99332513 14.6037966,9.52243345 14.4125559,8.89147684 C14.2346197,8.30441528 14.2346197,7.69558472 14.4125559,7.10852316 C14.6037966,6.47756655 14.9222573,6.00667487 15.6755972,5.25333503 L17.253335,3.67559716 C18.0066749,2.92225732 18.4775665,2.60379662 19.1085232,2.41255593 C19.6955847,2.23461968 20.3044153,2.23461968 20.8914768,2.41255593 Z M9.11562915,3 C10.1810126,3 10.739169,3.10778498 11.3205503,3.41871109 C11.8614854,3.70800637 12.2919936,4.13851458 12.5812889,4.67944972 C12.892215,5.26083101 13,5.81898744 13,6.88437085 L13,9.11562915 C13,10.1810126 12.892215,10.739169 12.5812889,11.3205503 C12.2919936,11.8614854 11.8614854,12.2919936 11.3205503,12.5812889 C10.739169,12.892215 10.1810126,13 9.11562915,13 L6.88437085,13 C5.81898744,13 5.26083101,12.892215 4.67944972,12.5812889 C4.13851458,12.2919936 3.70800637,11.8614854 3.41871109,11.3205503 C3.10778498,10.739169 3,10.1810126 3,9.11562915 L3,6.88437085 C3,5.81898744 3.10778498,5.26083101 3.41871109,4.67944972 C3.70800637,4.13851458 4.13851458,3.70800637 4.67944972,3.41871109 C5.26083101,3.10778498 5.81898744,3 6.88437085,3 L9.11562915,3 Z M19.6886538,4.32656962 C19.4151349,4.40947222 19.2073921,4.54996722 18.6675486,5.08981072 L17.0898107,6.66754859 C16.5499672,7.20739209 16.4094722,7.41513491 16.3265696,7.68865385 C16.2632818,7.89745815 16.2632818,8.10254185 16.3265696,8.31134615 C16.4094722,8.58486509 16.5499672,8.79260791 17.0898107,9.33245141 L18.6675486,10.9101893 C19.2073921,11.4500328 19.4151349,11.5905278 19.6886538,11.6734304 C19.8974581,11.7367182 20.1025419,11.7367182 20.3113462,11.6734304 C20.5848651,11.5905278 20.7926079,11.4500328 21.3324514,10.9101893 L22.9101893,9.33245141 C23.4500328,8.79260791 23.5905278,8.58486509 23.6734304,8.31134615 C23.7367182,8.10254185 23.7367182,7.89745815 23.6734304,7.68865385 C23.5905278,7.41513491 23.4500328,7.20739209 22.9101893,6.66754859 L21.3324514,5.08981072 C20.7926079,4.54996722 20.5848651,4.40947222 20.3113462,4.32656962 C20.1025419,4.26328178 19.8974581,4.26328178 19.6886538,4.32656962 Z M9.11562915,5 L6.88437085,5 C6.12091685,5 5.87467553,5.04755139 5.62264744,5.18233749 C5.43024925,5.28523317 5.28523317,5.43024925 5.18233749,5.62264744 C5.04755139,5.87467553 5,6.12091685 5,6.88437085 L5,9.11562915 C5,9.87908315 5.04755139,10.1253245 5.18233749,10.3773526 C5.28523317,10.5697508 5.43024925,10.7147668 5.62264744,10.8176625 C5.87467553,10.9524486 6.12091685,11 6.88437085,11 L9.11562915,11 C9.87908315,11 10.1253245,10.9524486 10.3773526,10.8176625 C10.5697508,10.7147668 10.7147668,10.5697508 10.8176625,10.3773526 C10.9524486,10.1253245 11,9.87908315 11,9.11562915 L11,6.88437085 C11,6.12091685 10.9524486,5.87467553 10.8176625,5.62264744 C10.7147668,5.43024925 10.5697508,5.28523317 10.3773526,5.18233749 C10.1253245,5.04755139 9.87908315,5 9.11562915,5 Z" id="↳-Icon-Color" fill="currentColor" fill-rule="nonzero"></path>
        </g>
    </g>
</svg>

<svg xmlns="http://www.w3.org/2000/svg" width="28" height="28" viewBox="0 0 28 28" fill="currentColor"><path d="M9.116 15c1.065 0 1.623.108 2.204.419.541.289.972.72 1.261 1.26.311.582.419 1.14.419 2.205v2.232c0 1.065-.108 1.623-.419 2.205-.289.54-.72.971-1.26 1.26-.582.311-1.14.419-2.205.419H6.884c-1.065 0-1.623-.108-2.205-.419a3.05 3.05 0 0 1-1.26-1.26C3.108 22.739 3 22.18 3 21.116v-2.232c0-1.065.108-1.623.419-2.204.289-.541.72-.972 1.26-1.261.582-.311 1.14-.419 2.205-.419zm12 0c1.065 0 1.623.108 2.205.419.54.289.971.72 1.26 1.26.311.582.419 1.14.419 2.205v2.232c0 1.065-.108 1.623-.419 2.205-.289.54-.72.971-1.26 1.26-.582.311-1.14.419-2.205.419h-2.232c-1.065 0-1.623-.108-2.205-.419a3.05 3.05 0 0 1-1.26-1.26c-.311-.582-.419-1.14-.419-2.205v-2.232c0-1.065.108-1.623.419-2.204.289-.541.72-.972 1.26-1.261.582-.311 1.14-.419 2.205-.419zm-12 2H6.884c-.763 0-1.01.048-1.261.182a1.05 1.05 0 0 0-.44.44c-.135.253-.183.499-.183 1.262v2.232c0 .763.048 1.01.182 1.261q.153.288.44.44c.253.136.499.183 1.262.183h2.232c.763 0 1.01-.047 1.261-.182q.288-.153.44-.44c.135-.253.183-.499.183-1.262v-2.232c0-.763-.048-1.01-.182-1.261a1.05 1.05 0 0 0-.44-.44c-.253-.135-.499-.183-1.262-.183m12 0h-2.232c-.763 0-1.01.048-1.261.182a1.05 1.05 0 0 0-.44.44c-.135.253-.183.499-.183 1.262v2.232c0 .763.048 1.01.182 1.261q.153.288.44.44c.253.136.499.183 1.262.183h2.232c.763 0 1.01-.047 1.261-.182q.288-.153.44-.44c.135-.253.183-.499.183-1.262v-2.232c0-.763-.048-1.01-.182-1.261a1.05 1.05 0 0 0-.44-.44c-.253-.135-.499-.183-1.262-.183m-.224-14.587c.63.19 1.101.51 1.855 1.263l1.577 1.577c.754.754 1.072 1.225 1.263 1.856a3.04 3.04 0 0 1 0 1.782c-.19.631-.51 1.102-1.263 1.856l-1.577 1.577c-.754.754-1.225 1.072-1.855 1.264a3.05 3.05 0 0 1-1.783 0c-.631-.192-1.102-.51-1.856-1.264l-1.577-1.577c-.754-.754-1.072-1.225-1.263-1.856a3.04 3.04 0 0 1 0-1.782c.19-.631.51-1.102 1.263-1.856l1.577-1.577c.754-.754 1.225-1.072 1.855-1.263a3.04 3.04 0 0 1 1.784 0M9.116 3c1.065 0 1.623.108 2.204.419.541.289.972.72 1.261 1.26.311.582.419 1.14.419 2.205v2.232c0 1.065-.108 1.623-.419 2.205-.289.54-.72.971-1.26 1.26-.582.311-1.14.419-2.205.419H6.884c-1.065 0-1.623-.108-2.205-.419a3.05 3.05 0 0 1-1.26-1.26C3.108 10.739 3 10.18 3 9.116V6.884c0-1.065.108-1.623.419-2.205.289-.54.72-.971 1.26-1.26C5.261 3.108 5.82 3 6.884 3zm10.573 1.327c-.274.082-.482.223-1.021.763L17.09 6.668c-.54.54-.68.747-.763 1.02a1.05 1.05 0 0 0 0 .623c.082.274.223.482.763 1.021l1.578 1.578c.54.54.747.68 1.02.763.21.064.415.064.623 0 .274-.082.482-.223 1.021-.763l1.578-1.578c.54-.54.68-.747.763-1.02a1.05 1.05 0 0 0 0-.623c-.082-.274-.223-.482-.763-1.021L21.332 5.09c-.54-.54-.747-.68-1.02-.763a1.05 1.05 0 0 0-.623 0M9.116 5H6.884c-.763 0-1.01.048-1.261.182a1.05 1.05 0 0 0-.44.44c-.136.254-.183.5-.183 1.263v2.232c0 .763.048 1.01.182 1.261q.153.288.44.44c.253.136.499.183 1.262.183h2.232c.763 0 1.01-.047 1.261-.182q.288-.153.44-.44c.135-.253.183-.499.183-1.262V6.884c0-.763-.048-1.01-.182-1.261a1.05 1.05 0 0 0-.44-.44C10.124 5.047 9.878 5 9.115 5"/></svg>
